; generated by PrusaSlicer 2.1.0 on 2019-09-20 at 11:38:46 UTC

; 

; external perimeters extrusion width = 0.45mm
; perimeters extrusion width = 0.45mm
; infill extrusion width = 0.50mm
; solid infill extrusion width = 0.45mm
; top infill extrusion width = 0.45mm
; first layer extrusion width = 0.42mm

M73 P0 R74
M201 X9000 Y9000 Z500 E10000 ; sets maximum accelerations, mm/sec^2
M203 X500 Y500 Z12 E120 ; sets maximum feedrates, mm/sec
M204 P2000 R1500 T2000 ; sets acceleration (P, T) and retract acceleration (R), mm/sec^2
M205 X10.00 Y10.00 Z0.20 E2.50 ; sets the jerk limits, mm/sec
M205 S0 T0 ; sets the minimum extruding and travel feed rate, mm/sec
M107
M115 U3.2.3 ; tell printer latest fw version
G90 ; use absolute coordinates
M83 ; extruder relative mode
M204 S2000 T1500 ; MK2 firmware only supports the old M204 format
M104 S215 ; set extruder temp
M140 S60 ; set bed temp
M190 S60 ; wait for bed temp
M109 S215 ; wait for extruder temp
G28 W ; home all without mesh bed level
G80 ; mesh bed leveling
G1 Y-3.0 F1000.0 ; go outside print area
G92 E0.0
G1 X60.0 E9.0  F1000.0 ; intro line
M73 P0 R74
G1 X100.0 E12.5 F1000.0 ; intro line
G92 E0.0
G21 ; set units to millimeters
G90 ; use absolute coordinates
M83 ; use relative distances for extrusion
M900 K30 ; Filament gcode
;BEFORE_LAYER_CHANGE
G92 E0.0
;0.2


G1 E-0.80000 F2100.00000
G1 Z0.600 F10800.000
;AFTER_LAYER_CHANGE
;0.2
G1 X84.185 Y87.969
G1 Z0.200
G1 E0.80000 F2100.00000
M204 S500
G1 F1200
G1 X84.994 Y87.811 E0.02586
G1 X165.004 Y87.811 E2.50864
G1 X165.830 Y87.975 E0.02642
G1 X166.531 Y88.436 E0.02631
G1 X167.007 Y89.127 E0.02631
G1 X167.188 Y89.947 E0.02631
G1 X167.186 Y120.095 E0.94528
G1 X167.070 Y120.711 E0.01964
G1 X166.786 Y121.265 E0.01953
G1 X166.357 Y121.717 E0.01953
G1 X165.815 Y122.031 E0.01964
G1 X165.006 Y122.189 E0.02586
G1 X84.967 Y122.188 E2.50956
G1 X84.338 Y122.086 E0.01998
G1 X83.762 Y121.805 E0.02010
G1 X83.292 Y121.369 E0.02010
G1 X82.969 Y120.815 E0.02010
G1 X82.811 Y120.010 E0.02574
G1 X82.813 Y89.920 E0.94345
G1 X82.926 Y89.300 E0.01976
G1 X83.210 Y88.741 E0.01964
G1 X83.640 Y88.285 E0.01964
G1 X84.133 Y87.999 E0.01787
G1 F8640
G1 X84.994 Y87.811 E-0.20356
G1 X87.404 Y87.811 E-0.55644
G1 E-0.04000 F2100.00000
G1 Z0.800 F10800.000
G1 X85.964 Y90.964
G1 Z0.200
G1 E0.80000 F2100.00000
G1 F1200
G1 X164.036 Y90.964 E2.44788
G1 X164.036 Y119.036 E0.88017
G1 X85.964 Y119.036 E2.44788
G1 X85.964 Y91.024 E0.87829
G1 X85.587 Y90.587 F10800.000
G1 F1200
G1 X164.413 Y90.587 E2.47153
G1 X164.413 Y119.413 E0.90381
G1 X85.587 Y119.413 E2.47153
G1 X85.587 Y90.647 E0.90193
G1 X85.210 Y90.210 F10800.000
G1 F1200
G1 X164.790 Y90.210 E2.49518
G1 X164.790 Y119.790 E0.92746
G1 X85.210 Y119.790 E2.49518
G1 X85.210 Y90.270 E0.92558
G1 X85.607 Y90.257 F10800.000
G1 F8640
G1 X88.501 Y90.268 E-0.76000
G1 E-0.04000 F2100.00000
G1 Z0.800 F10800.000
G1 X86.841 Y118.923
G1 Z0.200
G1 E0.80000 F2100.00000
G1 F1200
G1 X86.247 Y118.329 E0.02638
G1 X86.247 Y117.795 E0.01678
G1 X87.205 Y118.753 E0.04257
G1 X87.740 Y118.753 E0.01678
G1 X86.247 Y117.260 E0.06630
G1 X86.247 Y116.726 E0.01678
G1 X88.274 Y118.753 E0.09003
G1 X88.808 Y118.753 E0.01678
G1 X86.247 Y116.192 E0.11375
G1 X86.247 Y115.658 E0.01678
G1 X89.342 Y118.753 E0.13748
G1 X89.876 Y118.753 E0.01678
G1 X86.247 Y115.124 E0.16120
G1 X86.247 Y114.590 E0.01678
G1 X90.410 Y118.753 E0.18493
G1 X90.945 Y118.753 E0.01678
G1 X86.247 Y114.055 E0.20866
G1 X86.247 Y113.521 E0.01678
G1 X91.479 Y118.753 E0.23238
G1 X92.013 Y118.753 E0.01678
G1 X86.247 Y112.987 E0.25611
G1 X86.247 Y112.453 E0.01678
G1 X92.547 Y118.753 E0.27983
G1 X93.081 Y118.753 E0.01678
G1 X86.247 Y111.919 E0.30356
G1 X86.247 Y111.384 E0.01678
G1 X93.616 Y118.753 E0.32729
G1 X94.150 Y118.753 E0.01678
G1 X86.247 Y110.850 E0.35101
G1 X86.247 Y110.316 E0.01678
G1 X94.684 Y118.753 E0.37474
G1 X95.218 Y118.753 E0.01678
G1 X86.247 Y109.782 E0.39847
G1 X86.247 Y109.248 E0.01678
G1 X95.752 Y118.753 E0.42219
G1 X96.286 Y118.753 E0.01678
G1 X86.247 Y108.714 E0.44592
G1 X86.247 Y108.179 E0.01678
G1 X96.821 Y118.753 E0.46964
G1 X97.355 Y118.753 E0.01678
G1 X86.247 Y107.645 E0.49337
G1 X86.247 Y107.111 E0.01678
G1 X97.889 Y118.753 E0.51710
G1 X98.423 Y118.753 E0.01678
G1 X86.247 Y106.577 E0.54082
G1 X86.247 Y106.043 E0.01678
G1 X98.957 Y118.753 E0.56455
M73 P1 R73
G1 X99.491 Y118.753 E0.01678
G1 X86.247 Y105.509 E0.58827
G1 X86.247 Y104.974 E0.01678
G1 X100.026 Y118.753 E0.61200
G1 X100.560 Y118.753 E0.01678
G1 X86.247 Y104.440 E0.63573
G1 X86.247 Y103.906 E0.01678
G1 X101.094 Y118.753 E0.65945
G1 X101.628 Y118.753 E0.01678
G1 X86.247 Y103.372 E0.68318
G1 X86.247 Y102.838 E0.01678
G1 X102.162 Y118.753 E0.70691
G1 X102.696 Y118.753 E0.01678
G1 X86.247 Y102.304 E0.73063
G1 X86.247 Y101.769 E0.01678
G1 X103.231 Y118.753 E0.75436
G1 X103.765 Y118.753 E0.01678
G1 X86.247 Y101.235 E0.77808
G1 X86.247 Y100.701 E0.01678
G1 X104.299 Y118.753 E0.80181
G1 X104.833 Y118.753 E0.01678
G1 X86.247 Y100.167 E0.82554
G1 X86.247 Y99.633 E0.01678
G1 X105.367 Y118.753 E0.84926
G1 X105.901 Y118.753 E0.01678
G1 X86.247 Y99.099 E0.87299
G1 X86.247 Y98.564 E0.01678
G1 X106.436 Y118.753 E0.89671
G1 X106.970 Y118.753 E0.01678
G1 X86.247 Y98.030 E0.92044
G1 X86.247 Y97.496 E0.01678
G1 X107.504 Y118.753 E0.94417
G1 X108.038 Y118.753 E0.01678
G1 X86.247 Y96.962 E0.96789
G1 X86.247 Y96.428 E0.01678
G1 X108.572 Y118.753 E0.99162
G1 X109.107 Y118.753 E0.01678
G1 X86.247 Y95.893 E1.01535
G1 X86.247 Y95.359 E0.01678
G1 X109.641 Y118.753 E1.03907
G1 X110.175 Y118.753 E0.01678
G1 X86.247 Y94.825 E1.06280
G1 X86.247 Y94.291 E0.01678
G1 X110.709 Y118.753 E1.08652
G1 X111.243 Y118.753 E0.01678
G1 X86.247 Y93.757 E1.11025
G1 X86.247 Y93.223 E0.01678
G1 X111.777 Y118.753 E1.13398
G1 X112.312 Y118.753 E0.01678
G1 X86.247 Y92.688 E1.15770
G1 X86.247 Y92.154 E0.01678
G1 X112.846 Y118.753 E1.18143
G1 X113.380 Y118.753 E0.01678
G1 X86.247 Y91.620 E1.20515
G1 X86.247 Y91.247 E0.01172
G1 X86.408 Y91.247 E0.00506
G1 X113.914 Y118.753 E1.22173
G1 X114.448 Y118.753 E0.01678
G1 X86.942 Y91.247 E1.22173
G1 X87.476 Y91.247 E0.01678
G1 X114.982 Y118.753 E1.22173
G1 X115.517 Y118.753 E0.01678
G1 X88.010 Y91.247 E1.22173
G1 X88.545 Y91.247 E0.01678
G1 X116.051 Y118.753 E1.22173
G1 X116.585 Y118.753 E0.01678
G1 X89.079 Y91.247 E1.22173
G1 X89.613 Y91.247 E0.01678
G1 X117.119 Y118.753 E1.22173
G1 X117.653 Y118.753 E0.01678
G1 X90.147 Y91.247 E1.22173
G1 X90.681 Y91.247 E0.01678
G1 X118.187 Y118.753 E1.22173
G1 X118.722 Y118.753 E0.01678
G1 X91.216 Y91.247 E1.22173
G1 X91.750 Y91.247 E0.01678
G1 X119.256 Y118.753 E1.22173
M73 P2 R72
G1 X119.790 Y118.753 E0.01678
G1 X92.284 Y91.247 E1.22173
G1 X92.818 Y91.247 E0.01678
G1 X120.324 Y118.753 E1.22173
G1 X120.858 Y118.753 E0.01678
G1 X93.352 Y91.247 E1.22173
G1 X93.886 Y91.247 E0.01678
G1 X121.392 Y118.753 E1.22173
G1 X121.927 Y118.753 E0.01678
G1 X94.421 Y91.247 E1.22173
G1 X94.955 Y91.247 E0.01678
G1 X122.461 Y118.753 E1.22173
G1 X122.995 Y118.753 E0.01678
G1 X95.489 Y91.247 E1.22173
G1 X96.023 Y91.247 E0.01678
G1 X123.529 Y118.753 E1.22173
G1 X124.063 Y118.753 E0.01678
G1 X96.557 Y91.247 E1.22173
G1 X97.091 Y91.247 E0.01678
G1 X124.598 Y118.753 E1.22173
G1 X125.132 Y118.753 E0.01678
G1 X97.626 Y91.247 E1.22173
G1 X98.160 Y91.247 E0.01678
G1 X125.666 Y118.753 E1.22173
G1 X126.200 Y118.753 E0.01678
G1 X98.694 Y91.247 E1.22173
G1 X99.228 Y91.247 E0.01678
G1 X126.734 Y118.753 E1.22173
G1 X127.268 Y118.753 E0.01678
G1 X99.762 Y91.247 E1.22173
G1 X100.296 Y91.247 E0.01678
G1 X127.803 Y118.753 E1.22173
G1 X128.337 Y118.753 E0.01678
G1 X100.831 Y91.247 E1.22173
G1 X101.365 Y91.247 E0.01678
G1 X128.871 Y118.753 E1.22173
G1 X129.405 Y118.753 E0.01678
G1 X101.899 Y91.247 E1.22173
G1 X102.433 Y91.247 E0.01678
G1 X129.939 Y118.753 E1.22173
G1 X130.473 Y118.753 E0.01678
G1 X102.967 Y91.247 E1.22173
G1 X103.501 Y91.247 E0.01678
G1 X131.008 Y118.753 E1.22173
G1 X131.542 Y118.753 E0.01678
G1 X104.036 Y91.247 E1.22173
G1 X104.570 Y91.247 E0.01678
G1 X132.076 Y118.753 E1.22173
G1 X132.610 Y118.753 E0.01678
G1 X105.104 Y91.247 E1.22173
G1 X105.638 Y91.247 E0.01678
G1 X133.144 Y118.753 E1.22173
G1 X133.678 Y118.753 E0.01678
G1 X106.172 Y91.247 E1.22173
G1 X106.707 Y91.247 E0.01678
G1 X134.213 Y118.753 E1.22173
G1 X134.747 Y118.753 E0.01678
G1 X107.241 Y91.247 E1.22173
G1 X107.775 Y91.247 E0.01678
G1 X135.281 Y118.753 E1.22173
G1 X135.815 Y118.753 E0.01678
G1 X108.309 Y91.247 E1.22173
M73 P4 R71
G1 X108.843 Y91.247 E0.01678
G1 X136.349 Y118.753 E1.22173
G1 X136.883 Y118.753 E0.01678
G1 X109.377 Y91.247 E1.22173
G1 X109.912 Y91.247 E0.01678
G1 X137.418 Y118.753 E1.22173
G1 X137.952 Y118.753 E0.01678
G1 X110.446 Y91.247 E1.22173
G1 X110.980 Y91.247 E0.01678
G1 X138.486 Y118.753 E1.22173
G1 X139.020 Y118.753 E0.01678
G1 X111.514 Y91.247 E1.22173
G1 X112.048 Y91.247 E0.01678
G1 X139.554 Y118.753 E1.22173
G1 X140.089 Y118.753 E0.01678
G1 X112.582 Y91.247 E1.22173
G1 X113.117 Y91.247 E0.01678
G1 X140.623 Y118.753 E1.22173
G1 X141.157 Y118.753 E0.01678
G1 X113.651 Y91.247 E1.22173
G1 X114.185 Y91.247 E0.01678
G1 X141.691 Y118.753 E1.22173
G1 X142.225 Y118.753 E0.01678
G1 X114.719 Y91.247 E1.22173
G1 X115.253 Y91.247 E0.01678
G1 X142.759 Y118.753 E1.22173
G1 X143.294 Y118.753 E0.01678
G1 X115.787 Y91.247 E1.22173
G1 X116.322 Y91.247 E0.01678
G1 X143.828 Y118.753 E1.22173
G1 X144.362 Y118.753 E0.01678
G1 X116.856 Y91.247 E1.22173
G1 X117.390 Y91.247 E0.01678
G1 X144.896 Y118.753 E1.22173
G1 X145.430 Y118.753 E0.01678
G1 X117.924 Y91.247 E1.22173
G1 X118.458 Y91.247 E0.01678
G1 X145.964 Y118.753 E1.22173
G1 X146.499 Y118.753 E0.01678
G1 X118.992 Y91.247 E1.22173
G1 X119.527 Y91.247 E0.01678
G1 X147.033 Y118.753 E1.22173
G1 X147.567 Y118.753 E0.01678
G1 X120.061 Y91.247 E1.22173
G1 X120.595 Y91.247 E0.01678
G1 X148.101 Y118.753 E1.22173
G1 X148.635 Y118.753 E0.01678
G1 X121.129 Y91.247 E1.22173
G1 X121.663 Y91.247 E0.01678
G1 X149.169 Y118.753 E1.22173
G1 X149.704 Y118.753 E0.01678
G1 X122.198 Y91.247 E1.22173
G1 X122.732 Y91.247 E0.01678
G1 X150.238 Y118.753 E1.22173
G1 X150.772 Y118.753 E0.01678
G1 X123.266 Y91.247 E1.22173
G1 X123.800 Y91.247 E0.01678
G1 X151.306 Y118.753 E1.22173
G1 X151.840 Y118.753 E0.01678
G1 X124.334 Y91.247 E1.22173
G1 X124.868 Y91.247 E0.01678
G1 X152.374 Y118.753 E1.22173
M73 P5 R70
G1 X152.909 Y118.753 E0.01678
G1 X125.403 Y91.247 E1.22173
G1 X125.937 Y91.247 E0.01678
G1 X153.443 Y118.753 E1.22173
G1 X153.977 Y118.753 E0.01678
G1 X126.471 Y91.247 E1.22173
G1 X127.005 Y91.247 E0.01678
G1 X154.511 Y118.753 E1.22173
G1 X155.045 Y118.753 E0.01678
G1 X127.539 Y91.247 E1.22173
G1 X128.073 Y91.247 E0.01678
G1 X155.580 Y118.753 E1.22173
G1 X156.114 Y118.753 E0.01678
G1 X128.608 Y91.247 E1.22173
G1 X129.142 Y91.247 E0.01678
G1 X156.648 Y118.753 E1.22173
G1 X157.182 Y118.753 E0.01678
G1 X129.676 Y91.247 E1.22173
G1 X130.210 Y91.247 E0.01678
G1 X157.716 Y118.753 E1.22173
G1 X158.250 Y118.753 E0.01678
G1 X130.744 Y91.247 E1.22173
G1 X131.278 Y91.247 E0.01678
G1 X158.785 Y118.753 E1.22173
G1 X159.319 Y118.753 E0.01678
G1 X131.813 Y91.247 E1.22173
G1 X132.347 Y91.247 E0.01678
G1 X159.853 Y118.753 E1.22173
G1 X160.387 Y118.753 E0.01678
G1 X132.881 Y91.247 E1.22173
G1 X133.415 Y91.247 E0.01678
G1 X160.921 Y118.753 E1.22173
G1 X161.455 Y118.753 E0.01678
G1 X133.949 Y91.247 E1.22173
G1 X134.483 Y91.247 E0.01678
G1 X161.990 Y118.753 E1.22173
G1 X162.524 Y118.753 E0.01678
G1 X135.018 Y91.247 E1.22173
G1 X135.552 Y91.247 E0.01678
G1 X163.058 Y118.753 E1.22173
G1 X163.592 Y118.753 E0.01678
G1 X136.086 Y91.247 E1.22173
G1 X136.620 Y91.247 E0.01678
G1 X163.753 Y118.380 E1.20515
G1 X163.753 Y117.846 E0.01678
G1 X137.154 Y91.247 E1.18142
G1 X137.689 Y91.247 E0.01678
G1 X163.753 Y117.311 E1.15770
G1 X163.753 Y116.777 E0.01678
G1 X138.223 Y91.247 E1.13397
G1 X138.757 Y91.247 E0.01678
G1 X163.753 Y116.243 E1.11025
G1 X163.753 Y115.709 E0.01678
G1 X139.291 Y91.247 E1.08652
G1 X139.825 Y91.247 E0.01678
G1 X163.753 Y115.175 E1.06279
G1 X163.753 Y114.641 E0.01678
G1 X140.359 Y91.247 E1.03907
G1 X140.894 Y91.247 E0.01678
G1 X163.753 Y114.106 E1.01534
G1 X163.753 Y113.572 E0.01678
G1 X141.428 Y91.247 E0.99162
G1 X141.962 Y91.247 E0.01678
G1 X163.753 Y113.038 E0.96789
M73 P6 R69
G1 X163.753 Y112.504 E0.01678
G1 X142.496 Y91.247 E0.94416
G1 X143.030 Y91.247 E0.01678
G1 X163.753 Y111.970 E0.92044
G1 X163.753 Y111.436 E0.01678
G1 X143.564 Y91.247 E0.89671
G1 X144.099 Y91.247 E0.01678
G1 X163.753 Y110.901 E0.87298
G1 X163.753 Y110.367 E0.01678
G1 X144.633 Y91.247 E0.84926
G1 X145.167 Y91.247 E0.01678
G1 X163.753 Y109.833 E0.82553
G1 X163.753 Y109.299 E0.01678
G1 X145.701 Y91.247 E0.80181
G1 X146.235 Y91.247 E0.01678
G1 X163.753 Y108.765 E0.77808
G1 X163.753 Y108.231 E0.01678
G1 X146.769 Y91.247 E0.75435
G1 X147.304 Y91.247 E0.01678
G1 X163.753 Y107.696 E0.73063
G1 X163.753 Y107.162 E0.01678
G1 X147.838 Y91.247 E0.70690
G1 X148.372 Y91.247 E0.01678
G1 X163.753 Y106.628 E0.68318
G1 X163.753 Y106.094 E0.01678
G1 X148.906 Y91.247 E0.65945
G1 X149.440 Y91.247 E0.01678
G1 X163.753 Y105.560 E0.63572
G1 X163.753 Y105.026 E0.01678
G1 X149.974 Y91.247 E0.61200
G1 X150.509 Y91.247 E0.01678
G1 X163.753 Y104.491 E0.58827
G1 X163.753 Y103.957 E0.01678
G1 X151.043 Y91.247 E0.56455
G1 X151.577 Y91.247 E0.01678
G1 X163.753 Y103.423 E0.54082
G1 X163.753 Y102.889 E0.01678
G1 X152.111 Y91.247 E0.51709
G1 X152.645 Y91.247 E0.01678
G1 X163.753 Y102.355 E0.49337
G1 X163.753 Y101.820 E0.01678
G1 X153.180 Y91.247 E0.46964
G1 X153.714 Y91.247 E0.01678
G1 X163.753 Y101.286 E0.44591
G1 X163.753 Y100.752 E0.01678
G1 X154.248 Y91.247 E0.42219
G1 X154.782 Y91.247 E0.01678
G1 X163.753 Y100.218 E0.39846
G1 X163.753 Y99.684 E0.01678
G1 X155.316 Y91.247 E0.37474
G1 X155.850 Y91.247 E0.01678
G1 X163.753 Y99.150 E0.35101
G1 X163.753 Y98.615 E0.01678
G1 X156.385 Y91.247 E0.32728
G1 X156.919 Y91.247 E0.01678
G1 X163.753 Y98.081 E0.30356
G1 X163.753 Y97.547 E0.01678
G1 X157.453 Y91.247 E0.27983
G1 X157.987 Y91.247 E0.01678
G1 X163.753 Y97.013 E0.25611
G1 X163.753 Y96.479 E0.01678
G1 X158.521 Y91.247 E0.23238
G1 X159.055 Y91.247 E0.01678
G1 X163.753 Y95.945 E0.20865
G1 X163.753 Y95.410 E0.01678
G1 X159.590 Y91.247 E0.18493
G1 X160.124 Y91.247 E0.01678
G1 X163.753 Y94.876 E0.16120
G1 X163.753 Y94.342 E0.01678
G1 X160.658 Y91.247 E0.13747
G1 X161.192 Y91.247 E0.01678
G1 X163.753 Y93.808 E0.11375
G1 X163.753 Y93.274 E0.01678
G1 X161.726 Y91.247 E0.09002
G1 X162.260 Y91.247 E0.01678
G1 X163.753 Y92.740 E0.06630
G1 X163.753 Y92.205 E0.01678
G1 X162.795 Y91.247 E0.04257
G1 X163.329 Y91.247 E0.01678
G1 X163.923 Y91.841 E0.02638
M106 S255
;BEFORE_LAYER_CHANGE
G92 E0.0
;0.25


G1 F8640
G1 X163.329 Y91.247 E-0.19395
G1 X162.795 Y91.247 E-0.12334
G1 X163.753 Y92.205 E-0.31297
G1 X163.753 Y92.740 E-0.12334
G1 X163.733 Y92.720 E-0.00640
G1 E-0.04000 F2100.00000
G1 Z0.800 F10800.000
;AFTER_LAYER_CHANGE
;0.25
G1 X167.007 Y89.127
G1 Z0.250
G1 E0.80000 F2100.00000
G1 F1800
G1 X167.188 Y89.947 E0.00714
G1 X167.186 Y120.095 E0.25649
G1 X167.070 Y120.711 E0.00533
G1 X166.786 Y121.265 E0.00530
G1 X166.357 Y121.717 E0.00530
G1 X165.815 Y122.031 E0.00533
G1 X165.006 Y122.189 E0.00702
G1 X84.967 Y122.188 E0.68095
G1 X84.338 Y122.086 E0.00542
G1 X83.762 Y121.805 E0.00545
G1 X83.292 Y121.369 E0.00545
G1 X82.969 Y120.815 E0.00545
G1 X82.811 Y120.010 E0.00699
G1 X82.813 Y89.920 E0.25600
G1 X82.926 Y89.300 E0.00536
G1 X83.210 Y88.741 E0.00533
G1 X83.640 Y88.285 E0.00533
G1 X84.185 Y87.969 E0.00536
G1 X84.994 Y87.811 E0.00702
G1 X165.004 Y87.811 E0.68070
G1 X165.830 Y87.975 E0.00717
G1 X166.531 Y88.436 E0.00714
G1 X166.973 Y89.078 E0.00663
G1 F8640
G1 X167.188 Y89.947 E-0.20664
G1 X167.188 Y92.343 E-0.55336
G1 E-0.04000 F2100.00000
G1 Z0.850 F10800.000
G1 X163.896 Y91.104
G1 Z0.250
G1 E0.80000 F2100.00000
M204 S300
G1 F1800
G1 X163.896 Y118.896 E0.25379
G1 X86.104 Y118.896 E0.71036
G1 X86.104 Y91.104 E0.25379
G1 X163.836 Y91.104 E0.70981
M204 S500
G1 X164.336 Y90.664 F10800.000
M204 S300
G1 F1800
G1 X164.336 Y119.336 E0.26181
G1 X85.664 Y119.336 E0.71838
G1 X85.664 Y90.664 E0.26181
G1 X164.276 Y90.664 E0.71783
M204 S500
G1 X164.775 Y90.225 F10800.000
M204 S300
